packages/katcn/src/icons/svg/female-solid.svg

<svg width="24" height="25" viewBox="0 0 24 25" fill="none" xmlns="http://www.w3.org/2000/svg">
<path d="M15.6 9.17607C15.1 8.07607 14.5 7.27607 13.5 6.97607C14.2 6.47607 14.7 5.67607 14.7 4.67607C14.7 3.17607 13.5 1.97607 12 1.97607C10.5 1.97607 9.29999 3.17607 9.29999 4.67607C9.29999 5.67607 9.79999 6.47607 10.5 6.97607C9.49999 7.27607 8.79999 8.07607 8.29999 9.17607L6.99999 16.3761C6.89999 17.0761 7.29999 17.6761 7.89999 17.8761L9.89999 18.4761V21.8761C9.89999 23.0761 10.8 23.9761 12 23.9761C13.2 23.9761 14.1 23.0761 14.1 21.8761V18.4761L16.1 17.8761C16.8 17.6761 17.2 17.0761 17 16.3761L15.6 9.17607Z" fill="black"/>
</svg>

<svg xmlns="http://www.w3.org/2000/svg" fill="none" viewBox="0 0 24 25"><path fill="#000" d="M15.6 9.176c-.5-1.1-1.1-1.9-2.1-2.2.7-.5 1.2-1.3 1.2-2.3 0-1.5-1.2-2.7-2.7-2.7s-2.7 1.2-2.7 2.7c0 1 .5 1.8 1.2 2.3-1 .3-1.7 1.1-2.2 2.2l-1.3 7.2c-.1.7.3 1.3.9 1.5l2 .6v3.4c0 1.2.9 2.1 2.1 2.1s2.1-.9 2.1-2.1v-3.4l2-.6c.7-.2 1.1-.8.9-1.5z"/></svg>
